packages/icons/src/SVG/inbox.svg

<svg width="12" height="12" viewBox="0 0 12 12" >
<path d="M12 3V12H0L3.93403e-07 3H1L1 7H4C4 8.10457 4.89543 9 6 9C7.10457 9 8 8.10457 8 7H11V8H8.82929C8.41746 9.16519 7.30622 10 6 10C4.69378 10 3.58254 9.16519 3.17071 8H1L1 11L11 11V3H12Z" />
<path d="M7 3V8.74224e-08L5 0V3L3 3L6 7L9 3L7 3Z" />
</svg>

<!-- Generated by IcoMoon.io -->
<svg version="1.1" xmlns="http://www.w3.org/2000/svg" width="12" height="12" viewBox="0 0 12 12">
<title>inbox</title>
<path d="M12 3v9h-12v-9h1v4h3c0 1.105 0.895 2 2 2s2-0.895 2-2h3v1h-2.171c-0.412 1.165-1.523 2-2.829 2s-2.417-0.835-2.829-2h-2.171v3h10v-8h1z"></path>
<path d="M7 3v-3h-2v3h-2l3 4 3-4h-2z"></path>
</svg>
